X: 1049
T:The Foot of the Mountain (A23)
N: page A23
N: hexatonic
C:anon.
O:Ireland
B:Francis O'Neill: "The Dance Music of Ireland" (1907) no. 331
R:Double jig
Z:Transcribed by Frank Nordberg - http://www.musicaviva.com
M:6/8
L:1/8
K:G
(G3/4A/4)|"G"B3 (TBAG)|"D"Add dAA|"G"B3 (TBAG)|\
"D"FAA AFD|"G"B3 (TBAG)|"D"Add dcA|
"G"DGG "Am"cAF|"G"AGG G2::D|"G"DGG "D"FDD|\
"G"DGG "D"FDD|"G"DGG "Am"AGF|cAG "D"AFD|
"G"DGG "D"FDD|"G"DGG "D"FDD|"G"DGG "Am"cAF|"G"AGG G2:|
